<?xml version="1.0" encoding="UTF-8"?>
<map version="1.10" tiledversion="1.10.2" orientation="orthogonal" renderorder="right-down" width="20" height="20" tilewidth="8" tileheight="8" infinite="0" nextlayerid="3" nextobjectid="1">
 <tileset firstgid="1" source="colored_tilemap.tsx"/>
 <layer id="1" name="Ground" width="20" height="20">
  <data encoding="csv">
87,87,86,87,87,87,87,87,122,121,25,121,26,122,26,140,149,63,18,43,
85,87,30,132,30,85,87,18,70,122,18,18,18,86,18,140,149,18,16,18,
87,70,133,10,133,87,87,18,18,18,18,18,18,70,18,140,149,18,30,18,
87,70,70,70,86,70,18,18,70,18,18,18,18,18,18,140,149,18,18,18,
85,87,70,70,70,70,18,18,18,18,69,18,18,18,18,140,151,152,153,146,
87,87,70,70,18,18,69,18,87,70,18,18,70,18,86,156,109,109,92,109,
119,18,119,18,18,18,18,18,18,18,18,18,18,18,18,85,18,70,18,18,
18,11,18,18,70,18,51,2,2,2,2,2,2,52,18,18,18,18,18,18,
119,18,119,18,18,85,20,155,118,70,69,118,18,17,18,70,18,18,18,87,
87,18,18,18,18,18,20,69,69,118,108,9,18,17,87,18,18,18,87,86,
86,87,70,18,18,18,20,18,70,18,69,18,69,17,18,18,69,18,87,85,
87,85,87,87,18,69,49,2,2,2,35,2,2,50,18,18,18,70,70,86,
86,87,87,18,18,18,18,18,70,70,18,70,70,18,18,18,86,18,18,87,
85,87,70,18,70,18,18,70,18,69,18,70,18,18,18,18,44,45,45,45,
87,70,70,18,69,18,18,18,18,18,18,18,18,18,70,18,18,18,70,87,
87,120,138,18,18,18,18,18,18,18,70,18,18,86,18,69,18,18,18,86,
86,18,18,18,70,18,86,124,126,92,124,126,18,18,69,18,18,18,87,87,
124,126,18,18,18,27,124,141,158,18,156,141,126,18,18,18,12,137,86,85,
141,141,126,124,125,125,141,142,88,18,80,140,141,126,18,18,59,18,87,87,
141,141,141,141,141,141,141,127,125,125,125,128,141,141,125,125,126,87,86,87
</data>
 </layer>
 <layer id="2" name="Level2" width="20" height="20">
  <data encoding="csv">
0,0,0,0,0,0,0,0,0,0,0,0,0,0,0,0,0,0,0,0,
0,0,0,0,0,0,0,0,0,0,0,0,0,0,0,0,0,0,0,0,
0,0,0,0,0,0,0,0,0,0,0,0,0,0,0,0,0,0,0,0,
0,0,0,0,0,0,0,0,0,0,0,0,0,0,0,0,0,0,0,0,
0,0,0,0,0,0,0,0,0,0,0,0,0,0,0,0,0,0,0,0,
0,0,0,0,0,0,0,0,0,0,0,0,0,0,0,0,0,0,0,0,
0,0,0,0,0,0,0,0,0,0,0,0,0,0,0,0,0,0,0,0,
0,0,0,0,0,0,0,0,0,0,0,0,0,0,0,0,0,0,0,0,
0,0,0,0,0,0,0,0,0,0,0,0,0,0,0,0,0,0,0,0,
0,0,0,0,0,0,0,0,0,0,0,0,0,0,0,0,0,0,0,0,
0,0,0,0,0,0,0,0,0,0,0,0,0,0,0,0,0,0,0,0,
0,0,0,0,0,0,0,0,0,0,0,0,0,0,0,0,0,0,0,0,
0,0,0,0,0,0,0,0,0,0,0,0,0,0,0,0,0,0,0,0,
0,0,0,0,0,0,0,0,0,0,0,0,0,0,0,0,0,0,0,0,
0,0,0,0,0,0,0,0,0,0,0,0,0,0,0,0,0,0,0,0,
0,0,0,0,0,0,0,0,0,0,0,0,0,0,0,0,0,0,0,0,
0,0,0,0,0,0,0,0,0,0,0,0,0,0,0,0,0,0,0,0,
0,0,0,0,0,0,0,0,0,0,0,0,0,0,0,0,0,0,0,0,
0,0,0,0,0,0,0,0,0,0,0,0,0,0,0,0,0,0,0,0,
0,0,0,0,0,0,0,0,0,0,0,0,0,0,0,0,0,0,0,0
</data>
 </layer>
</map>
